X:1
T:Reel O' Tulloch
M:C
L:1/8
Q:80
C:Trad.
S:Reel
K:HP
|: a | \
g2ce/2f/2gece | \
g2cd/2e/2f/2e/2d/2c/2Bd | \
g2ce/2f/2gcec |
dGG/2G/2Gf3/2d/2B :: \
d | \
ece/2f/2geccd | \
ece/2f/2gf/2e/2d/2c/2Bd |
ece/2f/2gecec | \
dGG/2G/2Gf3/2d/2B :|
